assets/fourthofjuly-grey/FourthofjulyGrey17.svg

<svg xmlns="http://www.w3.org/2000/svg" viewBox="0 0 200 200"><g><path d="M142.9 133.2c-.7-.1-1.8-.4-2.9-1.3-.8-.7-2.3-2-2.4-2-.9-.7-2-.7-2.9-.1l-32.2-32.2 32.3-32.3c.4.3.9.4 1.4.4.5 0 1.1-.2 1.5-.5 0 0 1.6-1.3 2.4-2 1.1-.9 2.2-1.2 2.9-1.3 1.7-.2 2.4-1.4 2.3-2.5-.1-.8-.5-2.9-2.3-4.7-1.8-1.8-3.9-2.2-4.7-2.3-1-.1-1.8.4-2.3 1.3-.2.3-.2.6-.3 1-.1.7-.4 1.8-1.3 2.9-.6.8-2 2.4-2 2.4-.7.9-.7 2-.1 2.9L100 95.1 67.7 62.7c.6-.9.6-2-.1-2.9 0 0-1.4-1.6-2-2.4-.9-1.1-1.2-2.2-1.3-2.9-.2-1.8-1.5-2.4-2.5-2.3-.8.1-2.9.5-4.7 2.3-1.8 1.8-2.2 3.9-2.3 4.7-.1 1.1.5 2.3 2.3 2.5.7.1 1.8.4 2.9 1.3.8.6 2.3 2 2.4 2 .5.4 1 .5 1.5.5s.9-.2 1.4-.4l32.3 32.3-32.2 32.2c-.9-.6-2-.6-2.9.1 0 0-1.6 1.3-2.4 2-1.1.9-2.2 1.2-2.9 1.3-1.7.2-2.4 1.4-2.3 2.5.1.8.5 2.9 2.3 4.7.9.9 1.9 1.5 3.1 1.9.6.2 1.3.4 1.9.4.9 0 2-.6 2.3-2.3.1-.7.4-1.8 1.3-2.9.7-.8 2-2.3 2-2.4.7-.9.7-2 .1-2.9l32.2-32.2 32.2 32.2c-.6.9-.6 2 .1 2.9 0 0 1.3 1.6 2 2.4.9 1.1 1.2 2.2 1.3 2.9.2 1.7 1.4 2.3 2.3 2.3h.3c.8-.1 2.9-.5 4.7-2.3 1.8-1.8 2.2-3.9 2.3-4.7 0-.9-.6-2.1-2.4-2.3zm-8.7-72c0-.1 1.3-1.5 1.9-2.3 1.2-1.5 1.7-3 1.8-4 0-.2.1-.3 0-.3.6.1 2.1.4 3.3 1.7 1.3 1.3 1.6 2.8 1.7 3.3 0 0-.1.1-.3.1-1 .1-2.5.6-4 1.8-.8.7-2.3 1.9-2.3 1.9-.1.1-.2.1-.4 0l-1.7-1.7c-.1-.3 0-.4 0-.5zm-68.5.3L64 63.3c-.1.1-.3.1-.3 0-.1 0-1.5-1.3-2.3-2-1.5-1.2-3-1.7-4-1.8h-.3c.1-.6.4-2.1 1.7-3.3 1.3-1.3 2.8-1.6 3.3-1.7 0 0 .1.1.1.3.1 1 .5 2.5 1.8 4 .7.8 1.9 2.3 1.9 2.3-.1.2 0 .3-.2.4zm.2 72.3s-1.3 1.5-2 2.3c-1.2 1.5-1.7 3-1.8 4 0 .1 0 .2-.1.3-.6-.1-2-.4-3.3-1.7-1.3-1.3-1.6-2.8-1.7-3.3 0 0 .1-.1.3-.1 1-.1 2.5-.6 4-1.8.8-.7 2.3-1.9 2.3-1.9s.1-.1.2-.1.1 0 .2.1l1.7 1.7c.3.3.2.4.2.5zm75.4 5c-1.3 1.3-2.7 1.6-3.3 1.7 0-.1-.1-.1-.1-.3-.1-1-.5-2.5-1.8-4-.7-.8-1.9-2.3-1.9-2.3-.1-.1-.1-.2 0-.3l1.7-1.7c.1-.1.1-.1.2-.1 0 0 .1 0 .1.1 0 0 1.5 1.3 2.3 2 1.5 1.2 3 1.7 4 1.8.2 0 .3.1.3 0 .1.4-.2 1.8-1.5 3.1z"/><path d="M116.2 137.5h.8l-1.1 2.9-1.2-3h.8v-3.3h-5.3v3.3h.8l3 7.4v4.8h-1.2v3.3h6.2v-3.3h-1.2v-4.9l2.5-7.3h1.1v-3.3h-5.2zM107.8 149.6h-3.5v-12.2h1.3V134h-6.4v3.4h1.4v12.2h-1.4v3.3h12.2v-5.8h-3.6zM93.6 137.4h.9v12.2h-3.2v-12.2h.9v-3.3h-5.1v3.3h1v13.5l2 2.1h5.6l2-2.1v-13.5h1v-3.3h-5.1zM79.9 137.4h1.4v12.3h-2.8v-3h-3.6v4.3l1.8 1.9h6.4L85 151v-13.6h1.3V134h-6.4zM100.3 126.6v.9h3.4v-.9h-1.6v-7.5h1.7v-.9h-1.7v-2.4c0-.6.1-1.1.6-1.1.3 0 .5.2.5 1.1v.5h.9v-.3c0-1.2-.3-2-1.5-2-.8 0-1.5.4-1.5 2v2.2h-.8v.9h.8v7.5h-.8zM99.3 125.2v-4.8c0-1.4-.6-2.4-2.1-2.4-1.2 0-2.1.7-2.1 2.4v4.8c0 1.4.6 2.4 2.1 2.4 1.2 0 2.1-.7 2.1-2.4zm-3.3.1v-5c0-.8.3-1.4 1.1-1.4.7 0 1.1.4 1.1 1.4v4.9c0 .8-.3 1.4-1.1 1.4-.6.1-1.1-.3-1.1-1.3zM147.2 95.6c-.1-.2-.3-.4-.5-.5l-5-.7-2.3-4.6c-.1-.2-.3-.4-.6-.4s-.5.1-.6.4l-2.3 4.6-5 .7c-.3 0-.5.2-.5.5-.1.2 0 .5.2.7l3.6 3.5-.9 5c0 .3.1.5.3.7.2.1.5.2.7.1l4.5-2.4 4.5 2.4c.2.1.5.1.7-.1.2-.2.3-.4.3-.7l-.9-5 3.6-3.5c.2-.2.3-.5.2-.7zM55.7 104.8c0 .3.1.5.3.7.2.1.5.2.7.1l4.5-2.4 4.5 2.4c.2.1.5.1.7-.1.2-.2.3-.4.3-.7l-.9-5 3.7-3.5c.2-.2.2-.4.2-.7-.1-.2-.3-.4-.5-.5l-5-.7-2.3-4.6c-.1-.2-.3-.4-.6-.4s-.5.1-.6.4l-2.3 4.6-5 .7c-.3 0-.5.2-.5.5-.1.2 0 .5.2.7l3.6 3.5-1 5zM111.4 58.7h-.7v-5.5c0-.9.3-1.6 1.1-1.6.6 0 1.1.5 1.1 1.6v5.5h-.8v.8h2.4v-.8h-.7v-5.8c0-1.3-.5-2.2-1.7-2.2-.5 0-1 .2-1.4.9V47H109v.8h.7v10.9h-.7v.8h2.4v-.8zM105.7 58.3c0 1 .4 1.2 1.5 1.2h.7v-.8h-.7c-.4 0-.5-.2-.5-.4v-6.6h1.2v-.8h-1.2V48h-1v2.8h-.7v.8h.7v6.7zM97.2 80h4.3v-7.3h1.7v-4.2h-1.7V50.1H96l-7.5 18.8v3.8h8.7V80zm-4.5-11.6L97.2 57v11.4h-4.5z"/></g></svg>

<svg xmlns="http://www.w3.org/2000/svg" x="0" y="0" version="1.1" viewBox="0 0 200 200" xml:space="preserve"><g><path d="M142.9 133.2c-.7-.1-1.8-.4-2.9-1.3-.8-.7-2.3-2-2.4-2-.9-.7-2-.7-2.9-.1l-32.2-32.2 32.3-32.3c.4.3.9.4 1.4.4.5 0 1.1-.2 1.5-.5 0 0 1.6-1.3 2.4-2 1.1-.9 2.2-1.2 2.9-1.3 1.7-.2 2.4-1.4 2.3-2.5-.1-.8-.5-2.9-2.3-4.7-1.8-1.8-3.9-2.2-4.7-2.3-1-.1-1.8.4-2.3 1.3-.2.3-.2.6-.3 1-.1.7-.4 1.8-1.3 2.9-.6.8-2 2.4-2 2.4-.7.9-.7 2-.1 2.9L100 95.1 67.7 62.7c.6-.9.6-2-.1-2.9 0 0-1.4-1.6-2-2.4-.9-1.1-1.2-2.2-1.3-2.9-.2-1.8-1.5-2.4-2.5-2.3-.8.1-2.9.5-4.7 2.3-1.8 1.8-2.2 3.9-2.3 4.7-.1 1.1.5 2.3 2.3 2.5.7.1 1.8.4 2.9 1.3.8.6 2.3 2 2.4 2 .5.4 1 .5 1.5.5s.9-.2 1.4-.4l32.3 32.3-32.2 32.2c-.9-.6-2-.6-2.9.1 0 0-1.6 1.3-2.4 2-1.1.9-2.2 1.2-2.9 1.3-1.7.2-2.4 1.4-2.3 2.5.1.8.5 2.9 2.3 4.7.9.9 1.9 1.5 3.1 1.9.6.2 1.3.4 1.9.4.9 0 2-.6 2.3-2.3.1-.7.4-1.8 1.3-2.9.7-.8 2-2.3 2-2.4.7-.9.7-2 .1-2.9l32.2-32.2 32.2 32.2c-.6.9-.6 2 .1 2.9 0 0 1.3 1.6 2 2.4.9 1.1 1.2 2.2 1.3 2.9.2 1.7 1.4 2.3 2.3 2.3h.3c.8-.1 2.9-.5 4.7-2.3 1.8-1.8 2.2-3.9 2.3-4.7 0-.9-.6-2.1-2.4-2.3zm-8.7-72c0-.1 1.3-1.5 1.9-2.3 1.2-1.5 1.7-3 1.8-4 0-.2.1-.3 0-.3.6.1 2.1.4 3.3 1.7 1.3 1.3 1.6 2.8 1.7 3.3 0 0-.1.1-.3.1-1 .1-2.5.6-4 1.8-.8.7-2.3 1.9-2.3 1.9-.1.1-.2.1-.4 0l-1.7-1.7c-.1-.3 0-.4 0-.5zm-68.5.3L64 63.3c-.1.1-.3.1-.3 0-.1 0-1.5-1.3-2.3-2-1.5-1.2-3-1.7-4-1.8h-.3c.1-.6.4-2.1 1.7-3.3 1.3-1.3 2.8-1.6 3.3-1.7 0 0 .1.1.1.3.1 1 .5 2.5 1.8 4 .7.8 1.9 2.3 1.9 2.3-.1.2 0 .3-.2.4zm.2 72.3s-1.3 1.5-2 2.3c-1.2 1.5-1.7 3-1.8 4 0 .1 0 .2-.1.3-.6-.1-2-.4-3.3-1.7-1.3-1.3-1.6-2.8-1.7-3.3 0 0 .1-.1.3-.1 1-.1 2.5-.6 4-1.8.8-.7 2.3-1.9 2.3-1.9s.1-.1.2-.1.1 0 .2.1l1.7 1.7c.3.3.2.4.2.5zm75.4 5c-1.3 1.3-2.7 1.6-3.3 1.7 0-.1-.1-.1-.1-.3-.1-1-.5-2.5-1.8-4-.7-.8-1.9-2.3-1.9-2.3-.1-.1-.1-.2 0-.3l1.7-1.7c.1-.1.1-.1.2-.1 0 0 .1 0 .1.1 0 0 1.5 1.3 2.3 2 1.5 1.2 3 1.7 4 1.8.2 0 .3.1.3 0 .1.4-.2 1.8-1.5 3.1z"/><path d="M116.2 137.5 117 137.5 115.9 140.4 114.7 137.4 115.5 137.4 115.5 134.1 110.2 134.1 110.2 137.4 111 137.4 114 144.8 114 149.6 112.8 149.6 112.8 152.9 119 152.9 119 149.6 117.8 149.6 117.8 144.7 120.3 137.4 121.4 137.4 121.4 134.1 116.2 134.1z"/><path d="M107.8 149.6 104.3 149.6 104.3 137.4 105.6 137.4 105.6 134 99.2 134 99.2 137.4 100.6 137.4 100.6 149.6 99.2 149.6 99.2 152.9 111.4 152.9 111.4 147.1 107.8 147.1z"/><path d="M93.6 137.4 94.5 137.4 94.5 149.6 91.3 149.6 91.3 137.4 92.2 137.4 92.2 134.1 87.1 134.1 87.1 137.4 88.1 137.4 88.1 150.9 90.1 153 95.7 153 97.7 150.9 97.7 137.4 98.7 137.4 98.7 134.1 93.6 134.1z"/><path d="M79.9 137.4 81.3 137.4 81.3 149.7 78.5 149.7 78.5 146.7 74.9 146.7 74.9 151 76.7 152.9 83.1 152.9 85 151 85 137.4 86.3 137.4 86.3 134 79.9 134z"/><path d="M100.3 126.6v.9h3.4v-.9h-1.6v-7.5h1.7v-.9h-1.7v-2.4c0-.6.1-1.1.6-1.1.3 0 .5.2.5 1.1v.5h.9v-.3c0-1.2-.3-2-1.5-2-.8 0-1.5.4-1.5 2v2.2h-.8v.9h.8v7.5h-.8zM99.3 125.2v-4.8c0-1.4-.6-2.4-2.1-2.4-1.2 0-2.1.7-2.1 2.4v4.8c0 1.4.6 2.4 2.1 2.4 1.2 0 2.1-.7 2.1-2.4zm-3.3.1v-5c0-.8.3-1.4 1.1-1.4.7 0 1.1.4 1.1 1.4v4.9c0 .8-.3 1.4-1.1 1.4-.6.1-1.1-.3-1.1-1.3zM147.2 95.6c-.1-.2-.3-.4-.5-.5l-5-.7-2.3-4.6c-.1-.2-.3-.4-.6-.4s-.5.1-.6.4l-2.3 4.6-5 .7c-.3 0-.5.2-.5.5-.1.2 0 .5.2.7l3.6 3.5-.9 5c0 .3.1.5.3.7.2.1.5.2.7.1l4.5-2.4 4.5 2.4c.2.1.5.1.7-.1.2-.2.3-.4.3-.7l-.9-5 3.6-3.5c.2-.2.3-.5.2-.7zM55.7 104.8c0 .3.1.5.3.7.2.1.5.2.7.1l4.5-2.4 4.5 2.4c.2.1.5.1.7-.1.2-.2.3-.4.3-.7l-.9-5 3.7-3.5c.2-.2.2-.4.2-.7-.1-.2-.3-.4-.5-.5l-5-.7-2.3-4.6c-.1-.2-.3-.4-.6-.4s-.5.1-.6.4l-2.3 4.6-5 .7c-.3 0-.5.2-.5.5-.1.2 0 .5.2.7l3.6 3.5-1 5zM111.4 58.7h-.7v-5.5c0-.9.3-1.6 1.1-1.6.6 0 1.1.5 1.1 1.6v5.5h-.8v.8h2.4v-.8h-.7v-5.8c0-1.3-.5-2.2-1.7-2.2-.5 0-1 .2-1.4.9V47H109v.8h.7v10.9h-.7v.8h2.4v-.8zM105.7 58.3c0 1 .4 1.2 1.5 1.2h.7v-.8h-.7c-.4 0-.5-.2-.5-.4v-6.6h1.2v-.8h-1.2V48h-1v2.8h-.7v.8h.7v6.7zM97.2 80h4.3v-7.3h1.7v-4.2h-1.7V50.1H96l-7.5 18.8v3.8h8.7V80zm-4.5-11.6L97.2 57v11.4h-4.5z"/></g></svg>
